static/img/in-field/inputs-info.svg

<svg width="468" height="94" viewBox="0 0 468 94" fill="none" xmlns="http://www.w3.org/2000/svg">
<rect x="1" y="1" width="466" height="54" rx="3" fill="#fff"/>
<path d="M22.9717 37H21.1348V22.9062H16.1934V21.2949H27.8916V22.9062H22.9717V37ZM34.7803 25.0117C35.7829 25.0117 36.6423 25.2337 37.3584 25.6777C38.0745 26.1217 38.6224 26.7448 39.002 27.5469C39.3815 28.3418 39.5713 29.2728 39.5713 30.3398V31.4463H31.4395C31.4609 32.8285 31.8047 33.8812 32.4707 34.6045C33.1367 35.3278 34.0749 35.6895 35.2852 35.6895C36.0299 35.6895 36.6888 35.6214 37.2617 35.4854C37.8346 35.3493 38.429 35.1488 39.0449 34.8838V36.4521C38.4505 36.7171 37.8597 36.9105 37.2725 37.0322C36.6924 37.154 36.0049 37.2148 35.21 37.2148C34.0785 37.2148 33.0902 36.9857 32.2451 36.5273C31.4072 36.0618 30.7555 35.3815 30.29 34.4863C29.8245 33.5911 29.5918 32.4954 29.5918 31.1992C29.5918 29.9316 29.8031 28.8359 30.2256 27.9121C30.6553 26.9811 31.2568 26.265 32.0303 25.7637C32.8109 25.2624 33.7275 25.0117 34.7803 25.0117ZM34.7588 26.4727C33.8063 26.4727 33.0472 26.7842 32.4814 27.4072C31.9157 28.0303 31.5791 28.9004 31.4717 30.0176H37.7021C37.695 29.3158 37.584 28.6999 37.3691 28.1699C37.1615 27.6328 36.8428 27.2174 36.4131 26.9238C35.9834 26.623 35.432 26.4727 34.7588 26.4727ZM45.6543 30.9736L41.583 25.2266H43.624L46.7285 29.7598L49.8223 25.2266H51.8418L47.7705 30.9736L52.0674 37H50.0264L46.7285 32.1982L43.4092 37H41.3896L45.6543 30.9736ZM58.4189 35.7539C58.7126 35.7539 59.0133 35.7288 59.3213 35.6787C59.6292 35.6286 59.8799 35.5677 60.0732 35.4961V36.8818C59.8656 36.9749 59.5755 37.0537 59.2031 37.1182C58.8379 37.1826 58.4798 37.2148 58.1289 37.2148C57.5059 37.2148 56.9401 37.1074 56.4316 36.8926C55.9232 36.6706 55.515 36.2982 55.207 35.7754C54.9062 35.2526 54.7559 34.5293 54.7559 33.6055V26.623H53.0801V25.7529L54.7666 25.0547L55.4756 22.498H56.5498V25.2266H59.998V26.623H56.5498V33.5518C56.5498 34.2894 56.7181 34.8408 57.0547 35.2061C57.3984 35.5713 57.8532 35.7539 58.4189 35.7539ZM68.9414 37V21.2949H70.7676V37H68.9414ZM80.6426 25.0117C82.0391 25.0117 83.0954 25.3555 83.8115 26.043C84.5277 26.7233 84.8857 27.819 84.8857 29.3301V37H83.124V29.4482C83.124 28.4671 82.8984 27.7331 82.4473 27.2461C82.0033 26.7591 81.3193 26.5156 80.3955 26.5156C79.0921 26.5156 78.1755 26.8844 77.6455 27.6221C77.1156 28.3597 76.8506 29.4303 76.8506 30.834V37H75.0674V25.2266H76.5068L76.7754 26.9238H76.8721C77.1227 26.5085 77.4414 26.1611 77.8281 25.8818C78.2148 25.5954 78.6481 25.3805 79.1279 25.2373C79.6077 25.0869 80.1126 25.0117 80.6426 25.0117ZM94.3418 25.0117C95.8099 25.0117 96.9808 25.5166 97.8545 26.5264C98.7282 27.5361 99.165 29.0544 99.165 31.0811C99.165 32.4202 98.9645 33.5446 98.5635 34.4541C98.1624 35.3636 97.5967 36.0511 96.8662 36.5166C96.1429 36.9821 95.2871 37.2148 94.2988 37.2148C93.6758 37.2148 93.1279 37.1325 92.6553 36.9678C92.1826 36.8031 91.778 36.5811 91.4414 36.3018C91.1048 36.0225 90.8255 35.7181 90.6035 35.3887H90.4746C90.4961 35.668 90.5212 36.0046 90.5498 36.3984C90.5856 36.7923 90.6035 37.1361 90.6035 37.4297V42.2637H88.8096V25.2266H90.2812L90.5176 26.9668H90.6035C90.8327 26.6087 91.112 26.2829 91.4414 25.9893C91.7708 25.6885 92.1719 25.4521 92.6445 25.2803C93.1243 25.1012 93.6901 25.0117 94.3418 25.0117ZM94.0303 26.5156C93.2139 26.5156 92.555 26.6732 92.0537 26.9883C91.5596 27.3034 91.1979 27.776 90.9688 28.4062C90.7396 29.0293 90.6178 29.8135 90.6035 30.7588V31.1025C90.6035 32.098 90.7109 32.9395 90.9258 33.627C91.1478 34.3145 91.5094 34.8372 92.0107 35.1953C92.5192 35.5534 93.1995 35.7324 94.0518 35.7324C94.7822 35.7324 95.391 35.5355 95.8779 35.1416C96.3649 34.7477 96.7266 34.1999 96.9629 33.498C97.2064 32.7891 97.3281 31.9762 97.3281 31.0596C97.3281 29.6702 97.056 28.5674 96.5117 27.751C95.9746 26.9274 95.1475 26.5156 94.0303 26.5156ZM112.252 25.2266V37H110.791L110.533 35.3457H110.437C110.193 35.7539 109.878 36.0977 109.491 36.377C109.104 36.6562 108.668 36.8639 108.181 37C107.701 37.1432 107.189 37.2148 106.645 37.2148C105.714 37.2148 104.933 37.0645 104.303 36.7637C103.673 36.4629 103.196 35.9974 102.874 35.3672C102.559 34.737 102.401 33.9277 102.401 32.9395V25.2266H104.206V32.8105C104.206 33.7917 104.428 34.5257 104.872 35.0127C105.316 35.4925 105.993 35.7324 106.902 35.7324C107.776 35.7324 108.471 35.5677 108.986 35.2383C109.509 34.9089 109.885 34.4255 110.114 33.7881C110.343 33.1436 110.458 32.3558 110.458 31.4248V25.2266H112.252ZM120.075 35.7539C120.369 35.7539 120.67 35.7288 120.978 35.6787C121.285 35.6286 121.536 35.5677 121.729 35.4961V36.8818C121.522 36.9749 121.232 37.0537 120.859 37.1182C120.494 37.1826 120.136 37.2148 119.785 37.2148C119.162 37.2148 118.596 37.1074 118.088 36.8926C117.579 36.6706 117.171 36.2982 116.863 35.7754C116.562 35.2526 116.412 34.5293 116.412 33.6055V26.623H114.736V25.7529L116.423 25.0547L117.132 22.498H118.206V25.2266H121.654V26.623H118.206V33.5518C118.206 34.2894 118.374 34.8408 118.711 35.2061C119.055 35.5713 119.509 35.7539 120.075 35.7539Z" fill="#252A2E"/>
<rect x="1" y="1" width="466" height="54" rx="3" stroke="#353A40" stroke-width="2"/>
<g clip-path="url(#clip0_7345_82999)">
<path d="M5.13757 79.5C5.13757 81.066 5.43147 82.6166 6.00249 84.0635C6.57351 85.5103 7.41047 86.8249 8.46557 87.9322C9.52068 89.0395 10.7733 89.9179 12.1518 90.5172C13.5304 91.1165 15.0079 91.425 16.5001 91.425C17.9922 91.425 19.4698 91.1165 20.8483 90.5172C22.2269 89.9179 23.4795 89.0395 24.5346 87.9322C25.5897 86.8249 26.4266 85.5103 26.9977 84.0635C27.5687 82.6166 27.8626 81.066 27.8626 79.5C27.8626 77.9339 27.5687 76.3833 26.9977 74.9365C26.4266 73.4896 25.5897 72.175 24.5346 71.0677C23.4795 69.9604 22.2269 69.082 20.8483 68.4827C19.4698 67.8834 17.9922 67.575 16.5001 67.575C15.0079 67.575 13.5304 67.8834 12.1518 68.4827C10.7733 69.082 9.52068 69.9604 8.46557 71.0677C7.41047 72.175 6.57351 73.4896 6.00249 74.9365C5.43147 76.3833 5.13757 77.9339 5.13757 79.5V79.5Z" fill="#019AEB"/>
<path d="M16.5 68.5875C22.5188 68.5875 27.4125 73.4812 27.4125 79.5C27.4125 85.5187 22.5188 90.4125 16.5 90.4125C10.4813 90.4125 5.58755 85.5187 5.58755 79.5C5.58755 73.4812 10.4813 68.5875 16.5 68.5875ZM16.5 66.675C9.41255 66.675 3.67505 72.4125 3.67505 79.5C3.67505 86.5875 9.41255 92.325 16.5 92.325C23.5875 92.325 29.325 86.5875 29.325 79.5C29.325 72.4125 23.5875 66.675 16.5 66.675Z" fill="#0E416C"/>
<path d="M17.7374 83.2688H18.6374V84.9563H14.3624V83.2688H15.6562V79.3313H14.3624V77.5875H17.7374V83.2688V83.2688ZM15.5437 76.5188H17.7374V74.0438H15.5437V76.5188Z" fill="#fff"/>
</g>
<path d="M51.0508 88H49.2246V80.5986H40.9746V88H39.1484V72.2949H40.9746V78.9873H49.2246V72.2949H51.0508V88ZM59.8838 76.0117C60.8864 76.0117 61.7458 76.2337 62.4619 76.6777C63.1781 77.1217 63.7259 77.7448 64.1055 78.5469C64.485 79.3418 64.6748 80.2728 64.6748 81.3398V82.4463H56.543C56.5645 83.8285 56.9082 84.8812 57.5742 85.6045C58.2402 86.3278 59.1784 86.6895 60.3887 86.6895C61.1335 86.6895 61.7923 86.6214 62.3652 86.4854C62.9382 86.3493 63.5326 86.1488 64.1484 85.8838V87.4521C63.554 87.7171 62.9632 87.9105 62.376 88.0322C61.7959 88.154 61.1084 88.2148 60.3135 88.2148C59.182 88.2148 58.1937 87.9857 57.3486 87.5273C56.5107 87.0618 55.859 86.3815 55.3936 85.4863C54.9281 84.5911 54.6953 83.4954 54.6953 82.1992C54.6953 80.9316 54.9066 79.8359 55.3291 78.9121C55.7588 77.9811 56.3604 77.265 57.1338 76.7637C57.9144 76.2624 58.8311 76.0117 59.8838 76.0117ZM59.8623 77.4727C58.9098 77.4727 58.1507 77.7842 57.585 78.4072C57.0192 79.0303 56.6826 79.9004 56.5752 81.0176H62.8057C62.7985 80.3158 62.6875 79.6999 62.4727 79.1699C62.265 78.6328 61.9463 78.2174 61.5166 77.9238C61.0869 77.623 60.5355 77.4727 59.8623 77.4727ZM69.748 88H67.9541V71.2852H69.748V88ZM79.3008 76.0117C80.7689 76.0117 81.9398 76.5166 82.8135 77.5264C83.6872 78.5361 84.124 80.0544 84.124 82.0811C84.124 83.4202 83.9235 84.5446 83.5225 85.4541C83.1214 86.3636 82.5557 87.0511 81.8252 87.5166C81.1019 87.9821 80.2461 88.2148 79.2578 88.2148C78.6348 88.2148 78.0869 88.1325 77.6143 87.9678C77.1416 87.8031 76.737 87.5811 76.4004 87.3018C76.0638 87.0225 75.7845 86.7181 75.5625 86.3887H75.4336C75.4551 86.668 75.4801 87.0046 75.5088 87.3984C75.5446 87.7923 75.5625 88.1361 75.5625 88.4297V93.2637H73.7686V76.2266H75.2402L75.4766 77.9668H75.5625C75.7917 77.6087 76.071 77.2829 76.4004 76.9893C76.7298 76.6885 77.1309 76.4521 77.6035 76.2803C78.0833 76.1012 78.6491 76.0117 79.3008 76.0117ZM78.9893 77.5156C78.1729 77.5156 77.514 77.6732 77.0127 77.9883C76.5186 78.3034 76.1569 78.776 75.9277 79.4062C75.6986 80.0293 75.5768 80.8135 75.5625 81.7588V82.1025C75.5625 83.098 75.6699 83.9395 75.8848 84.627C76.1068 85.3145 76.4684 85.8372 76.9697 86.1953C77.4782 86.5534 78.1585 86.7324 79.0107 86.7324C79.7412 86.7324 80.3499 86.5355 80.8369 86.1416C81.3239 85.7477 81.6855 85.1999 81.9219 84.498C82.1654 83.7891 82.2871 82.9762 82.2871 82.0596C82.2871 80.6702 82.015 79.5674 81.4707 78.751C80.9336 77.9274 80.1064 77.5156 78.9893 77.5156ZM92.0225 76.0117C93.0251 76.0117 93.8844 76.2337 94.6006 76.6777C95.3167 77.1217 95.8646 77.7448 96.2441 78.5469C96.6237 79.3418 96.8135 80.2728 96.8135 81.3398V82.4463H88.6816C88.7031 83.8285 89.0469 84.8812 89.7129 85.6045C90.3789 86.3278 91.3171 86.6895 92.5273 86.6895C93.2721 86.6895 93.931 86.6214 94.5039 86.4854C95.0768 86.3493 95.6712 86.1488 96.2871 85.8838V87.4521C95.6927 87.7171 95.1019 87.9105 94.5146 88.0322C93.9346 88.154 93.2471 88.2148 92.4521 88.2148C91.3206 88.2148 90.3324 87.9857 89.4873 87.5273C88.6494 87.0618 87.9977 86.3815 87.5322 85.4863C87.0667 84.5911 86.834 83.4954 86.834 82.1992C86.834 80.9316 87.0452 79.8359 87.4678 78.9121C87.8975 77.9811 88.499 77.265 89.2725 76.7637C90.0531 76.2624 90.9697 76.0117 92.0225 76.0117ZM92.001 77.4727C91.0485 77.4727 90.2894 77.7842 89.7236 78.4072C89.1579 79.0303 88.8213 79.9004 88.7139 81.0176H94.9443C94.9372 80.3158 94.8262 79.6999 94.6113 79.1699C94.4036 78.6328 94.085 78.2174 93.6553 77.9238C93.2256 77.623 92.6742 77.4727 92.001 77.4727ZM105.442 76.0117C105.679 76.0117 105.926 76.026 106.184 76.0547C106.441 76.0762 106.671 76.1084 106.871 76.1514L106.646 77.8057C106.452 77.7555 106.237 77.7161 106.001 77.6875C105.765 77.6589 105.543 77.6445 105.335 77.6445C104.862 77.6445 104.415 77.7412 103.992 77.9346C103.577 78.1208 103.212 78.3929 102.896 78.751C102.581 79.1019 102.334 79.528 102.155 80.0293C101.976 80.5234 101.887 81.0749 101.887 81.6836V88H100.093V76.2266H101.575L101.769 78.3965H101.844C102.087 77.9596 102.381 77.5622 102.725 77.2041C103.068 76.8389 103.466 76.5488 103.917 76.334C104.375 76.1191 104.884 76.0117 105.442 76.0117ZM120.401 88H118.564V73.9062H113.623V72.2949H125.321V73.9062H120.401V88ZM132.21 76.0117C133.213 76.0117 134.072 76.2337 134.788 76.6777C135.504 77.1217 136.052 77.7448 136.432 78.5469C136.811 79.3418 137.001 80.2728 137.001 81.3398V82.4463H128.869C128.891 83.8285 129.234 84.8812 129.9 85.6045C130.566 86.3278 131.505 86.6895 132.715 86.6895C133.46 86.6895 134.118 86.6214 134.691 86.4854C135.264 86.3493 135.859 86.1488 136.475 85.8838V87.4521C135.88 87.7171 135.289 87.9105 134.702 88.0322C134.122 88.154 133.435 88.2148 132.64 88.2148C131.508 88.2148 130.52 87.9857 129.675 87.5273C128.837 87.0618 128.185 86.3815 127.72 85.4863C127.254 84.5911 127.021 83.4954 127.021 82.1992C127.021 80.9316 127.233 79.8359 127.655 78.9121C128.085 77.9811 128.687 77.265 129.46 76.7637C130.241 76.2624 131.157 76.0117 132.21 76.0117ZM132.188 77.4727C131.236 77.4727 130.477 77.7842 129.911 78.4072C129.345 79.0303 129.009 79.9004 128.901 81.0176H135.132C135.125 80.3158 135.014 79.6999 134.799 79.1699C134.591 78.6328 134.272 78.2174 133.843 77.9238C133.413 77.623 132.862 77.4727 132.188 77.4727ZM143.084 81.9736L139.013 76.2266H141.054L144.158 80.7598L147.252 76.2266H149.271L145.2 81.9736L149.497 88H147.456L144.158 83.1982L140.839 88H138.819L143.084 81.9736ZM155.849 86.7539C156.142 86.7539 156.443 86.7288 156.751 86.6787C157.059 86.6286 157.31 86.5677 157.503 86.4961V87.8818C157.295 87.9749 157.005 88.0537 156.633 88.1182C156.268 88.1826 155.91 88.2148 155.559 88.2148C154.936 88.2148 154.37 88.1074 153.861 87.8926C153.353 87.6706 152.945 87.2982 152.637 86.7754C152.336 86.2526 152.186 85.5293 152.186 84.6055V77.623H150.51V76.7529L152.196 76.0547L152.905 73.498H153.979V76.2266H157.428V77.623H153.979V84.5518C153.979 85.2894 154.148 85.8408 154.484 86.2061C154.828 86.5713 155.283 86.7539 155.849 86.7539Z" fill="black"/>
<defs>
<clipPath id="clip0_7345_82999">
<rect width="27" height="27" fill="#fff" transform="translate(3 66)"/>
</clipPath>
</defs>
</svg>

<svg width="468" height="94" fill="none" xmlns="http://www.w3.org/2000/svg"><rect x="1" y="1" width="466" height="54" rx="3" fill="#fff"/><path d="M22.972 37h-1.837V22.906h-4.942v-1.611h11.699v1.611h-4.92V37zM34.78 25.012c1.003 0 1.862.222 2.578.666.717.444 1.264 1.067 1.644 1.869.38.795.57 1.726.57 2.793v1.106h-8.133c.022 1.382.366 2.435 1.032 3.159.666.723 1.604 1.085 2.814 1.085.745 0 1.404-.069 1.977-.205a10.9 10.9 0 001.783-.601v1.568a8.676 8.676 0 01-1.773.58c-.58.122-1.267.183-2.062.183-1.132 0-2.12-.23-2.965-.688-.838-.465-1.49-1.145-1.955-2.04-.465-.896-.698-1.992-.698-3.288 0-1.267.211-2.363.634-3.287.43-.93 1.03-1.647 1.804-2.148.78-.502 1.697-.752 2.75-.752zm-.021 1.46c-.953 0-1.712.312-2.278.935-.565.623-.902 1.493-1.01 2.61h6.231c-.007-.701-.118-1.317-.333-1.847-.208-.537-.526-.953-.956-1.246-.43-.301-.981-.451-1.654-.451zm10.895 4.502l-4.071-5.747h2.041l3.104 4.533 3.094-4.533h2.02l-4.072 5.747L52.067 37h-2.04l-3.299-4.802L43.41 37h-2.02l4.265-6.026zm12.765 4.78c.294 0 .594-.025.902-.075.308-.05.559-.111.752-.183v1.386c-.207.093-.498.172-.87.236a6.179 6.179 0 01-1.074.097 4.32 4.32 0 01-1.697-.322c-.509-.222-.917-.595-1.225-1.118-.3-.522-.451-1.246-.451-2.17v-6.982H53.08v-.87l1.687-.698.709-2.557h1.074v2.729h3.448v1.396H56.55v6.929c0 .737.168 1.289.505 1.654.343.365.798.548 1.364.548zM68.94 37V21.295h1.827V37H68.94zm11.702-11.988c1.396 0 2.452.343 3.168 1.031.717.68 1.075 1.776 1.075 3.287V37h-1.762v-7.552c0-.98-.226-1.715-.677-2.202-.444-.487-1.128-.73-2.052-.73-1.303 0-2.22.368-2.75 1.106-.53.738-.794 1.808-.794 3.212V37h-1.784V25.227h1.44l.268 1.697h.097c.25-.415.57-.763.956-1.042.387-.287.82-.502 1.3-.645.48-.15.985-.225 1.515-.225zm13.699 0c1.468 0 2.639.505 3.513 1.514.873 1.01 1.31 2.528 1.31 4.555 0 1.34-.2 2.464-.602 3.373-.4.91-.966 1.597-1.697 2.063-.723.465-1.579.698-2.567.698-.623 0-1.171-.083-1.644-.247a3.878 3.878 0 01-1.214-.666 4.347 4.347 0 01-.838-.913h-.128l.075 1.01c.036.393.053.737.053 1.03v4.835H88.81V25.227h1.471l.237 1.74h.085c.23-.358.509-.684.838-.978.33-.3.73-.537 1.203-.709.48-.179 1.046-.268 1.698-.268zm-.312 1.504c-.816 0-1.475.157-1.976.472-.494.315-.856.788-1.085 1.418-.23.623-.351 1.408-.365 2.353v.343c0 .996.107 1.838.322 2.525.222.688.583 1.21 1.085 1.568.508.358 1.189.537 2.04.537.731 0 1.34-.197 1.827-.59.487-.394.849-.942 1.085-1.644.243-.709.365-1.522.365-2.438 0-1.39-.272-2.493-.816-3.309-.537-.824-1.365-1.235-2.482-1.235zm18.222-1.29V37h-1.461l-.258-1.654h-.096a3.427 3.427 0 01-.946 1.031c-.387.28-.823.487-1.31.623-.48.143-.992.215-1.536.215-.931 0-1.712-.15-2.342-.451a3.036 3.036 0 01-1.429-1.397c-.315-.63-.473-1.44-.473-2.427v-7.713h1.805v7.583c0 .982.222 1.716.666 2.203.444.48 1.121.72 2.03.72.874 0 1.569-.165 2.084-.495.523-.33.899-.813 1.128-1.45.229-.644.344-1.432.344-2.363v-6.198h1.794zm7.823 10.528c.294 0 .595-.025.903-.075.307-.05.558-.111.751-.183v1.386c-.207.093-.497.172-.87.236a6.174 6.174 0 01-1.074.097 4.317 4.317 0 01-1.697-.322c-.509-.222-.917-.595-1.225-1.118-.301-.522-.451-1.246-.451-2.17v-6.982h-1.676v-.87l1.687-.698.709-2.557h1.074v2.729h3.448v1.396h-3.448v6.929c0 .737.168 1.289.505 1.654.344.365.798.548 1.364.548z" fill="#252A2E"/><rect x="1" y="1" width="466" height="54" rx="3" stroke="#353A40" stroke-width="2"/><g clip-path="url(#prefix__clip0_7345_82999)"><path d="M5.138 79.5c0 1.566.293 3.117.864 4.564a11.98 11.98 0 002.464 3.868 11.344 11.344 0 003.686 2.585 10.9 10.9 0 004.348.908c1.492 0 2.97-.308 4.348-.908a11.343 11.343 0 003.687-2.585 11.982 11.982 0 002.463-3.868 12.44 12.44 0 00.865-4.564 12.44 12.44 0 00-.865-4.564 11.981 11.981 0 00-2.463-3.868 11.343 11.343 0 00-3.687-2.585 10.898 10.898 0 00-4.348-.908c-1.492 0-2.97.308-4.348.908a11.344 11.344 0 00-3.686 2.585 11.98 11.98 0 00-2.464 3.868 12.439 12.439 0 00-.864 4.564z" fill="#019AEB"/><path d="M16.5 68.588c6.019 0 10.913 4.893 10.913 10.912 0 6.019-4.894 10.912-10.913 10.912S5.588 85.52 5.588 79.5c0-6.019 4.893-10.912 10.912-10.912zm0-1.913c-7.087 0-12.825 5.737-12.825 12.825 0 7.088 5.738 12.825 12.825 12.825 7.087 0 12.825-5.737 12.825-12.825 0-7.088-5.738-12.825-12.825-12.825z" fill="#0E416C"/><path d="M17.737 83.269h.9v1.687h-4.275V83.27h1.294V79.33h-1.294v-1.743h3.375v5.68zm-2.193-6.75h2.193v-2.475h-2.193v2.475z" fill="#fff"/></g><path d="M51.05 88h-1.825v-7.401h-8.25V88h-1.827V72.295h1.827v6.692h8.25v-6.692h1.826V88zm8.834-11.988c1.002 0 1.862.222 2.578.666.716.444 1.264 1.067 1.644 1.869.379.795.569 1.726.569 2.793v1.106h-8.132c.022 1.383.365 2.435 1.031 3.159.666.723 1.604 1.084 2.815 1.084.744 0 1.403-.068 1.976-.204a10.894 10.894 0 001.783-.601v1.568a8.676 8.676 0 01-1.772.58c-.58.122-1.268.183-2.063.183-1.131 0-2.12-.23-2.964-.688-.838-.465-1.49-1.145-1.955-2.04-.466-.896-.699-1.992-.699-3.288 0-1.267.212-2.363.634-3.287.43-.93 1.031-1.647 1.805-2.148.78-.502 1.697-.752 2.75-.752zm-.022 1.46c-.952 0-1.711.312-2.277.935-.566.623-.902 1.493-1.01 2.61h6.23c-.007-.701-.117-1.317-.332-1.847-.208-.537-.527-.953-.956-1.246-.43-.301-.982-.451-1.655-.451zM69.748 88h-1.794V71.285h1.794V88zm9.553-11.988c1.468 0 2.639.505 3.513 1.514.873 1.01 1.31 2.528 1.31 4.555 0 1.34-.2 2.464-.602 3.373-.4.91-.966 1.597-1.697 2.063-.723.465-1.579.698-2.567.698-.623 0-1.171-.083-1.644-.247a3.878 3.878 0 01-1.214-.666 4.347 4.347 0 01-.838-.913h-.128l.075 1.01c.036.393.053.737.053 1.03v4.835H73.77V76.227h1.471l.237 1.74h.085c.23-.358.509-.684.838-.978.33-.3.73-.537 1.203-.709.48-.179 1.046-.268 1.698-.268zm-.312 1.504c-.816 0-1.475.157-1.976.472-.494.315-.856.788-1.085 1.418-.23.623-.351 1.407-.365 2.353v.344c0 .995.107 1.837.322 2.524.222.688.583 1.21 1.085 1.568.508.358 1.189.537 2.04.537.731 0 1.34-.197 1.827-.59.487-.394.849-.942 1.085-1.644.243-.709.365-1.522.365-2.438 0-1.39-.272-2.493-.816-3.309-.537-.824-1.365-1.235-2.482-1.235zm13.033-1.504c1.003 0 1.862.222 2.579.666.716.444 1.264 1.067 1.643 1.869.38.795.57 1.726.57 2.793v1.106h-8.132c.021 1.383.365 2.435 1.03 3.159.667.723 1.605 1.084 2.815 1.084.745 0 1.404-.068 1.977-.204a10.9 10.9 0 001.783-.601v1.568a8.675 8.675 0 01-1.772.58c-.58.122-1.268.183-2.063.183-1.131 0-2.12-.23-2.965-.688-.838-.465-1.49-1.145-1.955-2.04-.465-.896-.698-1.992-.698-3.288 0-1.267.211-2.363.634-3.287.43-.93 1.031-1.647 1.804-2.148.781-.502 1.698-.752 2.75-.752zm-.021 1.46c-.953 0-1.712.312-2.277.935-.566.623-.903 1.493-1.01 2.61h6.23c-.007-.701-.118-1.317-.333-1.847-.207-.537-.526-.953-.956-1.246-.43-.301-.98-.451-1.654-.451zm13.441-1.46c.237 0 .484.014.742.043.257.021.487.053.687.096l-.225 1.655a5.552 5.552 0 00-1.311-.161c-.473 0-.92.096-1.343.29-.415.186-.78.458-1.096.816-.315.35-.562.777-.741 1.278a4.83 4.83 0 00-.268 1.655V88h-1.794V76.227h1.482l.194 2.17h.075c.243-.437.537-.835.881-1.193a3.956 3.956 0 011.192-.87 3.548 3.548 0 011.525-.322zM120.401 88h-1.837V73.906h-4.941v-1.611h11.698v1.611h-4.92V88zm11.809-11.988c1.003 0 1.862.222 2.578.666.716.444 1.264 1.067 1.644 1.869.379.795.569 1.726.569 2.793v1.106h-8.132c.022 1.383.365 2.435 1.031 3.159.666.723 1.605 1.084 2.815 1.084.745 0 1.403-.068 1.976-.204a10.908 10.908 0 001.784-.601v1.568a8.697 8.697 0 01-1.773.58c-.58.122-1.267.183-2.062.183-1.132 0-2.12-.23-2.965-.688-.838-.465-1.49-1.145-1.955-2.04-.466-.896-.699-1.992-.699-3.288 0-1.267.212-2.363.634-3.287.43-.93 1.032-1.647 1.805-2.148.781-.502 1.697-.752 2.75-.752zm-.022 1.46c-.952 0-1.711.312-2.277.935-.566.623-.902 1.493-1.01 2.61h6.231c-.007-.701-.118-1.317-.333-1.847-.208-.537-.527-.953-.956-1.246-.43-.301-.981-.451-1.655-.451zm10.896 4.502l-4.071-5.747h2.041l3.104 4.533 3.094-4.533h2.019l-4.071 5.747L149.497 88h-2.041l-3.298-4.802L140.839 88h-2.02l4.265-6.026zm12.765 4.78c.293 0 .594-.025.902-.075.308-.05.559-.111.752-.183v1.386c-.208.093-.498.172-.87.236a6.174 6.174 0 01-1.074.097 4.326 4.326 0 01-1.698-.322c-.508-.222-.916-.595-1.224-1.118-.301-.522-.451-1.246-.451-2.17v-6.982h-1.676v-.87l1.686-.698.709-2.557h1.074v2.729h3.449v1.396h-3.449v6.929c0 .737.169 1.289.505 1.654.344.365.799.548 1.365.548z" fill="#000"/><defs><clipPath id="prefix__clip0_7345_82999"><path fill="#fff" transform="translate(3 66)" d="M0 0h27v27H0z"/></clipPath></defs></svg>
